X: 41920
T: Waiting For Marilyn
R: hornpipe
M: 4/4
K: Dmajor
|:B3A (3Bcd GB|AFFE D2 FA|GEED EAAG|F2 D2 D2 FA|
B3A (3Bcd GB|AFFE D2 FA|GEED EAAG|1 FDEF D4:|2 FDEF D2 FA||
|:B3A (3Bcd eg|fddB A2 GB|A2 (3Bcd eaag|fddc d3A|
B3A (3Bcd eg|fddc d2 ef|g3f gbaf|gece d3A:|

